dist/svgs/unicons/line/focus-add.svg

<svg xmlns="http://www.w3.org/2000/svg" viewBox="0 0 24 24"><path d="M8 20H5a1 1 0 01-1-1v-3a1 1 0 00-2 0v3a3 3 0 003 3h3a1 1 0 000-2zM3 9a1 1 0 001-1V5a1 1 0 011-1h3a1 1 0 000-2H5a3 3 0 00-3 3v3a1 1 0 001 1zm16-7h-3a1 1 0 000 2h3a1 1 0 011 1v3a1 1 0 002 0V5a3 3 0 00-3-3zm-3 10a1 1 0 00-1-1h-2V9a1 1 0 00-2 0v2H9a1 1 0 000 2h2v2a1 1 0 002 0v-2h2a1 1 0 001-1zm5 3a1 1 0 00-1 1v3a1 1 0 01-1 1h-3a1 1 0 000 2h3a3 3 0 003-3v-3a1 1 0 00-1-1z"/></svg>

<svg xmlns="http://www.w3.org/2000/svg" viewBox="0 0 24 24"><path d="M8,20H5a1,1,0,0,1-1-1V16a1,1,0,0,0-2,0v3a3,3,0,0,0,3,3H8a1,1,0,0,0,0-2ZM3,9A1,1,0,0,0,4,8V5A1,1,0,0,1,5,4H8A1,1,0,0,0,8,2H5A3,3,0,0,0,2,5V8A1,1,0,0,0,3,9ZM19,2H16a1,1,0,0,0,0,2h3a1,1,0,0,1,1,1V8a1,1,0,0,0,2,0V5A3,3,0,0,0,19,2ZM16,12a1,1,0,0,0-1-1H13V9a1,1,0,0,0-2,0v2H9a1,1,0,0,0,0,2h2v2a1,1,0,0,0,2,0V13h2A1,1,0,0,0,16,12Zm5,3a1,1,0,0,0-1,1v3a1,1,0,0,1-1,1H16a1,1,0,0,0,0,2h3a3,3,0,0,0,3-3V16A1,1,0,0,0,21,15Z"/></svg>
